img/Usuário.svg

<?xml version="1.0" encoding="UTF-8" standalone="no"?>
<!-- Created with Inkscape (http://www.inkscape.org/) -->

<svg
   width="50.0px"
   height="50.0px"
   viewBox="0 0 50.0 50.0"
   version="1.1"
   id="SVGRoot"
   sodipodi:docname="Usuário.svg"
   xml:space="preserve"
   inkscape:version="1.2 (dc2aedaf03, 2022-05-15)"
   xmlns:inkscape="http://www.inkscape.org/namespaces/inkscape"
   xmlns:sodipodi="http://sodipodi.sourceforge.net/DTD/sodipodi-0.dtd"
   xmlns="http://www.w3.org/2000/svg"
   xmlns:svg="http://www.w3.org/2000/svg"><sodipodi:namedview
     id="namedview10256"
     pagecolor="#ffffff"
     bordercolor="#000000"
     borderopacity="0.25"
     inkscape:showpageshadow="2"
     inkscape:pageopacity="0.0"
     inkscape:pagecheckerboard="0"
     inkscape:deskcolor="#d1d1d1"
     inkscape:document-units="px"
     showgrid="true"
     inkscape:zoom="7.483165"
     inkscape:cx="11.893363"
     inkscape:cy="26.726659"
     inkscape:window-width="1366"
     inkscape:window-height="705"
     inkscape:window-x="-8"
     inkscape:window-y="-8"
     inkscape:window-maximized="1"
     inkscape:current-layer="layer1"><inkscape:grid
       type="xygrid"
       id="grid10742" /></sodipodi:namedview><defs
     id="defs10251"><linearGradient
       id="paint0_linear_802_508"
       x1="20"
       y1="0"
       x2="20"
       y2="40"
       gradientUnits="userSpaceOnUse"><stop
         offset="0.677083"
         stop-color="#FD8325"
         id="stop11842" /><stop
         offset="1"
         stop-color="#FC6621"
         id="stop11844" /></linearGradient></defs><g
     inkscape:label="Camada 1"
     inkscape:groupmode="layer"
     id="layer1"><g
       style="fill:none"
       id="g19151"
       transform="matrix(1.5625,0,0,1.5625,-12.5,-12.5)"><path
         d="M 24,8 C 15.168,8 8,15.168 8,24 8,32.832 15.168,40 24,40 32.832,40 40,32.832 40,24 40,15.168 32.832,8 24,8 Z M 16.112,34.048 C 16.8,32.608 20.992,31.2 24,31.2 c 3.008,0 7.216,1.408 7.888,2.848 C 29.712,35.776 26.976,36.8 24,36.8 c -2.976,0 -5.712,-1.024 -7.888,-2.752 z m 18.064,-2.32 C 31.888,28.944 26.336,28 24,28 21.664,28 16.112,28.944 13.824,31.728 12.192,29.584 11.2,26.912 11.2,24 c 0,-7.056 5.744,-12.8 12.8,-12.8 7.056,0 12.8,5.744 12.8,12.8 0,2.912 -0.992,5.584 -2.624,7.728 z M 24,14.4 c -3.104,0 -5.6,2.496 -5.6,5.6 0,3.104 2.496,5.6 5.6,5.6 3.104,0 5.6,-2.496 5.6,-5.6 0,-3.104 -2.496,-5.6 -5.6,-5.6 z m 0,8 c -1.328,0 -2.4,-1.072 -2.4,-2.4 0,-1.328 1.072,-2.4 2.4,-2.4 1.328,0 2.4,1.072 2.4,2.4 0,1.328 -1.072,2.4 -2.4,2.4 z"
         fill="#002f52"
         id="path19142" /></g></g></svg>

<svg width="48" height="48" viewBox="0 0 48 48" fill="none" xmlns="http://www.w3.org/2000/svg">
<path d="M24 8C15.168 8 8 15.168 8 24C8 32.832 15.168 40 24 40C32.832 40 40 32.832 40 24C40 15.168 32.832 8 24 8ZM16.112 34.048C16.8 32.608 20.992 31.2 24 31.2C27.008 31.2 31.216 32.608 31.888 34.048C29.712 35.776 26.976 36.8 24 36.8C21.024 36.8 18.288 35.776 16.112 34.048ZM34.176 31.728C31.888 28.944 26.336 28 24 28C21.664 28 16.112 28.944 13.824 31.728C12.192 29.584 11.2 26.912 11.2 24C11.2 16.944 16.944 11.2 24 11.2C31.056 11.2 36.8 16.944 36.8 24C36.8 26.912 35.808 29.584 34.176 31.728ZM24 14.4C20.896 14.4 18.4 16.896 18.4 20C18.4 23.104 20.896 25.6 24 25.6C27.104 25.6 29.6 23.104 29.6 20C29.6 16.896 27.104 14.4 24 14.4ZM24 22.4C22.672 22.4 21.6 21.328 21.6 20C21.6 18.672 22.672 17.6 24 17.6C25.328 17.6 26.4 18.672 26.4 20C26.4 21.328 25.328 22.4 24 22.4Z" fill="#002F52"/>
</svg>
